!!!SOCIAL_FUNCTION:	war songs
!!!PDT:	1913
!!!OTL: No_93_War_Song.krn
!!!REG: Great_Lakes
!!!LANG: Non-Tone
!!!LING_GROUP: Algonquin
**kern	**kern
*staff2	*staff1
=1-	=1-
*clefF4	*clefF4
*k[f#c#g#]	*k[f#c#g#]
*M3/4	*M3/4
12GG#^/	8.e\L
12r	.
12GG#/	.
.	16e\Jk
12GG#^/	4e\
12r	.
12GG#/	.
12GG#^/	12c#\L
12r	12B\
12GG#/	12A\J
=2||	=2||
*M2/4	*M2/4
2r	8.B\L
.	16d\Jk
.	12c#\L
.	12B\
.	12A\J
=3||	=3||
*M3/4	*M3/4
2.r	8.A\L
.	16A\Jk
.	4..A\
.	16A\
=4	=4
2.r	2.A\
=5	=5
2.r	8.e\L
.	16e\Jk
.	4e\
.	12c#\L
.	12B\
.	12A\J
=6||	=6||
*M2/4	*M2/4
2r	8.B\L
.	16d\Jk
.	12c#\L
.	12B\
.	12A\J
=7||	=7||
*M3/4	*M3/4
2.r	8.A\L
.	16A\Jk
.	4..A\
.	16A\
=8	=8
2.r	2.A\
=9!|:	=9!|:
2.r	8.B\L
.	16B\Jk
.	16B\LK
.	8.B\J
.	8.A\L
.	16Gn\Jk
=10||	=10||
*M2/4	*M2/4
2r	8.A\L
.	16A\Jk
.	16A\LK
.	8.A\J
=11	=11
2r	8.F#\L
.	16E\Jk
.	4E\
=12	=12
2r	8.A\L
.	16B\Jk
.	16A\LK
.	8.A\J
=13	=13
2r	8.F#\L
.	16E\Jk
.	8.E\L
.	16D\Jk
=14	=14
2r	8.E\L
.	16E\Jk
.	4E\
=15||	=15||
*M3/4	*M3/4
2.r	12C#/L
.	12BB/
.	12AA/J
.	12C#/L
.	12BB/
.	12AA/J
.	12C#/L
.	12BB/
.	12AA/J
=16	=16
2.r	4AA/
.	4.AA/
.	8AA/
=17	=17
2.r	2AA/
.	4AA/
==:|!	==:|!
*-	*-
